X: 305
T: ARABY'S DAUGHTER
T: Inghean arabi
B: O'Neill's 305
M: 6/8
L: 1/8
Z: 1999 by John Chambers <jc@trillian.mit.edu>
N: "With spirit"
K:D
d \
| fzd f>ed | e>de fdd | d>cB Adf | egf e2(d/e/) |
| f>ed f>ed | e>de fdd | dcB Adf | ede d2 ||
|| A \
| AAA BAA | AAA dAA | AAA f>ed | c<HeG A2A |
| f>ed f>ed | e>de fdd | dcB Adf | ede d2 ||


